assets/img/icon_topArw-dark.svg

<svg width="26" height="23" viewBox="0 0 26 23" fill="none" xmlns="http://www.w3.org/2000/svg">
<path d="M2.01313 22.8C1.51313 22.8 1.01313 22.6 0.613125 22.3C-0.186875 21.5 -0.186874 20.3 0.513126 19.5L11.1131 8.19998C11.5131 7.79998 12.0131 7.59998 12.6131 7.59998C13.2131 7.59998 13.7131 7.79998 14.1131 8.19998L24.7131 19.5C25.5131 20.3 25.4131 21.6 24.6131 22.3C23.8131 23.1 22.5131 23 21.8131 22.2L12.7131 12.5L3.51313 22.2C3.01313 22.5 2.51313 22.8 2.01313 22.8Z" fill="#F6E948"/>
<path d="M23.2132 4H2.01318C0.913184 4 0.0131836 3.1 0.0131836 2C0.0131836 0.899999 0.913184 0 2.01318 0H23.2132C24.3132 0 25.2132 0.899999 25.2132 2C25.2132 3.1 24.3132 4 23.2132 4Z" fill="#F6E948"/>
</svg>

<?xml version="1.0" encoding="utf-8"?>
<!-- Generator: Adobe Illustrator 24.2.1, SVG Export Plug-In . SVG Version: 6.00 Build 0)  -->
<svg version="1.1" id="圖層_1" xmlns="http://www.w3.org/2000/svg" xmlns:xlink="http://www.w3.org/1999/xlink" x="0px" y="0px"
	 width="25.3px" height="22.9px" viewBox="0 0 25.3 22.9" style="enable-background:new 0 0 25.3 22.9;" xml:space="preserve">
<style type="text/css">
	.st0{fill:#F6E948;}
</style>
<path class="st0" d="M2,22.8c-0.5,0-1-0.2-1.4-0.5c-0.8-0.8-0.8-2-0.1-2.8L11.1,8.2c0.4-0.4,0.9-0.6,1.5-0.6s1.1,0.2,1.5,0.6
	l10.6,11.3c0.8,0.8,0.7,2.1-0.1,2.8c-0.8,0.8-2.1,0.7-2.8-0.1l-9.1-9.7l-9.2,9.7C3,22.5,2.5,22.8,2,22.8z"/>
<path class="st0" d="M23.2,4H2C0.9,4,0,3.1,0,2s0.9-2,2-2h21.2c1.1,0,2,0.9,2,2S24.3,4,23.2,4z"/>
</svg>
